Adwaita++/actions/22/irc-channel-inactive.svg

<svg height="22" viewBox="0 0 22 22" width="22" xmlns="http://www.w3.org/2000/svg">
  <path d="m4 1v3h-3v2h3v4h-3v2h3v3h2v-3h4v3h2v-3h3v-2h-3v-4h3v-2h-3v-3h-2v3h-4v-3zm2 5h4v4h-4z" fill="#444" opacity=".3" transform="translate(3 3)"/>
</svg>

<svg xmlns="http://www.w3.org/2000/svg" width="22" height="22" viewBox="0 0 22 22">
 <defs>
  <style id="current-color-scheme" type="text/css">
   .ColorScheme-Text { color:#444444; } .ColorScheme-Highlight { color:#4285f4; }
  </style>
 </defs>
 <path style="fill:currentColor;opacity:0.3" class="ColorScheme-Text" d="M 4 1 L 4 4 L 1 4 L 1 6 L 4 6 L 4 10 L 1 10 L 1 12 L 4 12 L 4 15 L 6 15 L 6 12 L 10 12 L 10 15 L 12 15 L 12 12 L 15 12 L 15 10 L 12 10 L 12 6 L 15 6 L 15 4 L 12 4 L 12 1 L 10 1 L 10 4 L 6 4 L 6 1 L 4 1 z M 6 6 L 10 6 L 10 10 L 6 10 L 6 6 z" transform="translate(3 3)"/>
</svg>
